**kern	**kern	**dynam
*part1	*part1	*part1
*staff2	*staff1	*
*I"Piano	*	*
*clefF4	*clefF4	*
*k[f#c#]	*k[f#c#]	*
=1	=1	=1
2.FFF# 2.FF#	(2.D 2.A 2.d	.
=	=	=
*	*^	*
2.EE 2.BB	(4.c#)	2.E 2.G	pp
.	8BL	.	.
.	8A	.	.
.	8GJ)	.	.
*	*v	*v	*
=	=	=
2.FF# 2.BB	2.D 2.F#	.
=	=	=
2.FF# 2.C#	2.E 2.F# 2.A#X	.
=	=	=
[2.BBB [2.FF# [2.BB	[2.D [2.F# [2.B	.
=	=	=
2.BBB;] 2.FF#] 2.BB]	2.D;] 2.F#] 2.B]	.
*	*clefG2	*
=	=	=
*^	*	*
4rBB	[2.FF#	[2.F# [2.f#	fz p
4rBB	.	.	.
(16GG#XLL	.	.	.
16AA#X	.	.	.
16BB	.	.	.
16C#JJ)	.	.	.
=	=	=	=
*	*	*^	*
(4BB 4D	2.FF#]	2.F#] 2.f#]	(4B 4d	p >
2AA#X) 2C#	.	.	2A#X) 2c#	]
*	*	*v	*v	*
=	=	=	=
4rBB	[2.GG	[2.G [2.g	fz p
4rBB	.	.	.
8rBB	.	.	.
(24AA#XLL	.	.	.
24BB	.	.	.
24C#JJ)	.	.	.
*v	*v	*	*
=	=	=
*-	*-	*-
!!!system-decoration: {(s1,s2)}
